images/3232588.svg

<?xml version="1.0" encoding="UTF-8"?>
<svg xmlns="http://www.w3.org/2000/svg" xmlns:xlink="http://www.w3.org/1999/xlink" width="300pt" height="300pt" viewBox="0 0 300 300" version="1.1">
<defs>
<g>
<symbol overflow="visible" id="glyph0-0">
<path style="stroke:none;" d="M 0.796875 2.828125 L 0.796875 -11.28125 L 8.796875 -11.28125 L 8.796875 2.828125 Z M 1.703125 1.9375 L 7.90625 1.9375 L 7.90625 -10.390625 L 1.703125 -10.390625 Z M 1.703125 1.9375 "/>
</symbol>
<symbol overflow="visible" id="glyph0-1">
<path style="stroke:none;" d="M 1.578125 -11.671875 L 3.703125 -11.671875 L 8.875 -1.90625 L 8.875 -11.671875 L 10.40625 -11.671875 L 10.40625 0 L 8.28125 0 L 3.109375 -9.765625 L 3.109375 0 L 1.578125 0 Z M 1.578125 -11.671875 "/>
</symbol>
<symbol overflow="visible" id="glyph0-2">
<path style="stroke:none;" d="M 6.3125 -10.59375 C 5.164062 -10.59375 4.253906 -10.164062 3.578125 -9.3125 C 2.898438 -8.457031 2.5625 -7.296875 2.5625 -5.828125 C 2.5625 -4.359375 2.898438 -3.195312 3.578125 -2.34375 C 4.253906 -1.488281 5.164062 -1.0625 6.3125 -1.0625 C 7.457031 -1.0625 8.363281 -1.488281 9.03125 -2.34375 C 9.695312 -3.195312 10.03125 -4.359375 10.03125 -5.828125 C 10.03125 -7.296875 9.695312 -8.457031 9.03125 -9.3125 C 8.363281 -10.164062 7.457031 -10.59375 6.3125 -10.59375 Z M 6.3125 -11.875 C 7.945312 -11.875 9.253906 -11.328125 10.234375 -10.234375 C 11.210938 -9.140625 11.703125 -7.671875 11.703125 -5.828125 C 11.703125 -3.984375 11.210938 -2.507812 10.234375 -1.40625 C 9.253906 -0.3125 7.945312 0.234375 6.3125 0.234375 C 4.664062 0.234375 3.351562 -0.3125 2.375 -1.40625 C 1.394531 -2.507812 0.90625 -3.984375 0.90625 -5.828125 C 0.90625 -7.671875 1.394531 -9.140625 2.375 -10.234375 C 3.351562 -11.328125 4.664062 -11.875 6.3125 -11.875 Z M 6.3125 -11.875 "/>
</symbol>
<symbol overflow="visible" id="glyph0-3">
<path style="stroke:none;" d="M 1.578125 -11.671875 L 3.15625 -11.671875 L 3.15625 -6.890625 L 8.890625 -6.890625 L 8.890625 -11.671875 L 10.46875 -11.671875 L 10.46875 0 L 8.890625 0 L 8.890625 -5.5625 L 3.15625 -5.5625 L 3.15625 0 L 1.578125 0 Z M 1.578125 -11.671875 "/>
</symbol>
</g>
</defs>
<g id="surface47201">
<rect x="0" y="0" width="300" height="300" style="fill:rgb(100%,100%,100%);fill-opacity:1;stroke:none;"/>
<path style="fill:none;stroke-width:1.2;stroke-linecap:butt;stroke-linejoin:miter;stroke:rgb(0%,0%,0%);stroke-opacity:1;stroke-miterlimit:10;" d="M 62.320312 264.621094 L 30.75 243.023438 "/>
<path style="fill:none;stroke-width:1.2;stroke-linecap:butt;stroke-linejoin:miter;stroke:rgb(0%,0%,0%);stroke-opacity:1;stroke-miterlimit:10;" d="M 64.242188 255.035156 L 38.988281 237.753906 "/>
<path style="fill:none;stroke-width:1.2;stroke-linecap:butt;stroke-linejoin:miter;stroke:rgb(0%,0%,0%);stroke-opacity:1;stroke-miterlimit:10;" d="M 96.808594 248.082031 L 62.320312 264.621094 "/>
<path style="fill:none;stroke-width:1.2;stroke-linecap:butt;stroke-linejoin:miter;stroke:rgb(0%,0%,0%);stroke-opacity:1;stroke-miterlimit:10;" d="M 30.75 243.023438 L 33.667969 204.886719 "/>
<path style="fill:none;stroke-width:1.2;stroke-linecap:butt;stroke-linejoin:miter;stroke:rgb(0%,0%,0%);stroke-opacity:1;stroke-miterlimit:10;" d="M 33.667969 204.886719 L 68.15625 188.34375 "/>
<path style="fill:none;stroke-width:1.2;stroke-linecap:butt;stroke-linejoin:miter;stroke:rgb(0%,0%,0%);stroke-opacity:1;stroke-miterlimit:10;" d="M 41.011719 211.347656 L 68.601562 198.113281 "/>
<path style="fill:none;stroke-width:1.2;stroke-linecap:butt;stroke-linejoin:miter;stroke:rgb(0%,0%,0%);stroke-opacity:1;stroke-miterlimit:10;" d="M 68.15625 188.34375 L 99.726562 209.941406 "/>
<path style="fill:none;stroke-width:1.2;stroke-linecap:butt;stroke-linejoin:miter;stroke:rgb(0%,0%,100%);stroke-opacity:1;stroke-miterlimit:10;" d="M 71.078125 150.207031 L 69.617188 169.277344 "/>
<path style="fill:none;stroke-width:1.2;stroke-linecap:butt;stroke-linejoin:miter;stroke:rgb(0%,0%,0%);stroke-opacity:1;stroke-miterlimit:10;" d="M 69.617188 169.277344 L 68.15625 188.34375 "/>
<path style="fill:none;stroke-width:1.2;stroke-linecap:butt;stroke-linejoin:miter;stroke:rgb(0%,0%,0%);stroke-opacity:1;stroke-miterlimit:10;" d="M 99.726562 209.941406 L 96.808594 248.082031 "/>
<path style="fill:none;stroke-width:1.2;stroke-linecap:butt;stroke-linejoin:miter;stroke:rgb(0%,0%,0%);stroke-opacity:1;stroke-miterlimit:10;" d="M 90.460938 213.070312 L 88.125 243.578125 "/>
<path style="fill:none;stroke-width:1.2;stroke-linecap:butt;stroke-linejoin:miter;stroke:rgb(0%,0%,0%);stroke-opacity:1;stroke-miterlimit:10;" d="M 99.726562 209.941406 L 134.214844 193.402344 "/>
<path style="fill:none;stroke-width:1.2;stroke-linecap:butt;stroke-linejoin:miter;stroke:rgb(0%,0%,0%);stroke-opacity:1;stroke-miterlimit:10;" d="M 134.214844 193.402344 L 135.675781 174.332031 "/>
<path style="fill:none;stroke-width:1.2;stroke-linecap:butt;stroke-linejoin:miter;stroke:rgb(0%,0%,100%);stroke-opacity:1;stroke-miterlimit:10;" d="M 135.675781 174.332031 L 137.136719 155.261719 "/>
<path style="fill:none;stroke-width:1.2;stroke-linecap:butt;stroke-linejoin:miter;stroke:rgb(0%,0%,0%);stroke-opacity:1;stroke-miterlimit:10;" d="M 125.535156 188.902344 L 126.703125 173.644531 "/>
<path style="fill:none;stroke-width:1.2;stroke-linecap:butt;stroke-linejoin:miter;stroke:rgb(0%,0%,100%);stroke-opacity:1;stroke-miterlimit:10;" d="M 126.703125 173.644531 L 127.871094 158.390625 "/>
<path style="fill:none;stroke-width:1.2;stroke-linecap:butt;stroke-linejoin:miter;stroke:rgb(0%,0%,0%);stroke-opacity:1;stroke-miterlimit:10;" d="M 134.214844 193.402344 L 150 204.199219 "/>
<path style="fill:none;stroke-width:1.2;stroke-linecap:butt;stroke-linejoin:miter;stroke:rgb(0%,0%,100%);stroke-opacity:1;stroke-miterlimit:10;" d="M 150 204.199219 L 165.785156 215 "/>
<path style="fill:none;stroke-width:1.2;stroke-linecap:butt;stroke-linejoin:miter;stroke:rgb(0%,0%,100%);stroke-opacity:1;stroke-miterlimit:10;" d="M 137.136719 155.261719 L 121.351562 144.464844 "/>
<path style="fill:none;stroke-width:1.2;stroke-linecap:butt;stroke-linejoin:miter;stroke:rgb(0%,0%,0%);stroke-opacity:1;stroke-miterlimit:10;" d="M 121.351562 144.464844 L 105.566406 133.664062 "/>
<path style=" stroke:none;fill-rule:nonzero;fill:rgb(100%,100%,100%);fill-opacity:1;" d="M 131.136719 145.761719 L 143.136719 145.761719 L 143.136719 164.761719 L 131.136719 164.761719 Z M 131.136719 145.761719 "/>
<g style="fill:rgb(0%,0%,100%);fill-opacity:1;">
  <use xlink:href="#glyph0-1" x="131.136719" y="160.613281"/>
</g>
<path style="fill:none;stroke-width:1.2;stroke-linecap:butt;stroke-linejoin:miter;stroke:rgb(0%,0%,0%);stroke-opacity:1;stroke-miterlimit:10;" d="M 105.566406 133.664062 L 88.320312 141.9375 "/>
<path style="fill:none;stroke-width:1.2;stroke-linecap:butt;stroke-linejoin:miter;stroke:rgb(0%,0%,100%);stroke-opacity:1;stroke-miterlimit:10;" d="M 88.320312 141.9375 L 71.078125 150.207031 "/>
<path style="fill:none;stroke-width:1.2;stroke-linecap:butt;stroke-linejoin:miter;stroke:rgb(0%,0%,0%);stroke-opacity:1;stroke-miterlimit:10;" d="M 106.007812 143.433594 L 92.214844 150.050781 "/>
<path style="fill:none;stroke-width:1.2;stroke-linecap:butt;stroke-linejoin:miter;stroke:rgb(0%,0%,100%);stroke-opacity:1;stroke-miterlimit:10;" d="M 92.214844 150.050781 L 78.417969 156.667969 "/>
<path style="fill:none;stroke-width:1.2;stroke-linecap:butt;stroke-linejoin:miter;stroke:rgb(0%,0%,0%);stroke-opacity:1;stroke-miterlimit:10;" d="M 105.566406 133.664062 L 108.484375 95.527344 "/>
<path style=" stroke:none;fill-rule:nonzero;fill:rgb(100%,100%,100%);fill-opacity:1;" d="M 65.078125 140.707031 L 77.078125 140.707031 L 77.078125 159.707031 L 65.078125 159.707031 Z M 65.078125 140.707031 "/>
<g style="fill:rgb(0%,0%,100%);fill-opacity:1;">
  <use xlink:href="#glyph0-1" x="65.078125" y="155.558594"/>
</g>
<path style="fill:none;stroke-width:1.2;stroke-linecap:butt;stroke-linejoin:miter;stroke:rgb(0%,0%,0%);stroke-opacity:1;stroke-miterlimit:10;" d="M 108.484375 95.527344 L 79.347656 70.746094 "/>
<path style="fill:none;stroke-width:1.2;stroke-linecap:butt;stroke-linejoin:miter;stroke:rgb(0%,0%,0%);stroke-opacity:1;stroke-miterlimit:10;" d="M 111.402344 86.191406 L 88.089844 66.371094 "/>
<path style="fill:none;stroke-width:1.2;stroke-linecap:butt;stroke-linejoin:miter;stroke:rgb(0%,0%,0%);stroke-opacity:1;stroke-miterlimit:10;" d="M 141.054688 75.472656 L 108.484375 95.527344 "/>
<path style="fill:none;stroke-width:1.2;stroke-linecap:butt;stroke-linejoin:miter;stroke:rgb(0%,0%,0%);stroke-opacity:1;stroke-miterlimit:10;" d="M 79.347656 70.746094 L 86.628906 53.0625 "/>
<path style="fill:none;stroke-width:1.2;stroke-linecap:butt;stroke-linejoin:miter;stroke:rgb(100%,0%,0%);stroke-opacity:1;stroke-miterlimit:10;" d="M 86.628906 53.0625 L 93.910156 35.378906 "/>
<path style="fill:none;stroke-width:1.2;stroke-linecap:butt;stroke-linejoin:miter;stroke:rgb(100%,0%,0%);stroke-opacity:1;stroke-miterlimit:10;" d="M 93.910156 35.378906 L 112.976562 36.839844 "/>
<path style="fill:none;stroke-width:1.2;stroke-linecap:butt;stroke-linejoin:miter;stroke:rgb(0%,0%,0%);stroke-opacity:1;stroke-miterlimit:10;" d="M 112.976562 36.839844 L 132.046875 38.296875 "/>
<path style=" stroke:none;fill-rule:nonzero;fill:rgb(100%,100%,100%);fill-opacity:1;" d="M 87.910156 25.878906 L 100.910156 25.878906 L 100.910156 44.878906 L 87.910156 44.878906 Z M 87.910156 25.878906 "/>
<g style="fill:rgb(100%,0%,0%);fill-opacity:1;">
  <use xlink:href="#glyph0-2" x="87.910156" y="40.730469"/>
</g>
<path style="fill:none;stroke-width:1.2;stroke-linecap:butt;stroke-linejoin:miter;stroke:rgb(0%,0%,0%);stroke-opacity:1;stroke-miterlimit:10;" d="M 132.046875 38.296875 L 141.054688 75.472656 "/>
<path style="fill:none;stroke-width:1.2;stroke-linecap:butt;stroke-linejoin:miter;stroke:rgb(0%,0%,0%);stroke-opacity:1;stroke-miterlimit:10;" d="M 124.203125 44.136719 L 131.410156 73.875 "/>
<path style="fill:none;stroke-width:1.2;stroke-linecap:butt;stroke-linejoin:miter;stroke:rgb(0%,0%,100%);stroke-opacity:1;stroke-miterlimit:10;" d="M 165.785156 215 L 183.027344 206.730469 "/>
<path style="fill:none;stroke-width:1.2;stroke-linecap:butt;stroke-linejoin:miter;stroke:rgb(0%,0%,0%);stroke-opacity:1;stroke-miterlimit:10;" d="M 183.027344 206.730469 L 200.273438 198.457031 "/>
<path style=" stroke:none;fill-rule:nonzero;fill:rgb(100%,100%,100%);fill-opacity:1;" d="M 153.785156 205.5 L 177.785156 205.5 L 177.785156 224.5 L 153.785156 224.5 Z M 153.785156 205.5 "/>
<g style="fill:rgb(0%,0%,100%);fill-opacity:1;">
  <use xlink:href="#glyph0-1" x="153.785156" y="220.351562"/>
  <use xlink:href="#glyph0-3" x="165.753906" y="220.351562"/>
</g>
<path style="fill:none;stroke-width:1.2;stroke-linecap:butt;stroke-linejoin:miter;stroke:rgb(0%,0%,0%);stroke-opacity:1;stroke-miterlimit:10;" d="M 200.273438 198.457031 L 231.84375 220.054688 "/>
<path style="fill:none;stroke-width:1.2;stroke-linecap:butt;stroke-linejoin:miter;stroke:rgb(0%,0%,0%);stroke-opacity:1;stroke-miterlimit:10;" d="M 208.511719 193.191406 L 233.765625 210.46875 "/>
<path style="fill:none;stroke-width:1.2;stroke-linecap:butt;stroke-linejoin:miter;stroke:rgb(0%,0%,0%);stroke-opacity:1;stroke-miterlimit:10;" d="M 203.191406 160.320312 L 200.273438 198.457031 "/>
<path style="fill:none;stroke-width:1.2;stroke-linecap:butt;stroke-linejoin:miter;stroke:rgb(0%,0%,0%);stroke-opacity:1;stroke-miterlimit:10;" d="M 231.84375 220.054688 L 266.332031 203.515625 "/>
<path style="fill:none;stroke-width:1.2;stroke-linecap:butt;stroke-linejoin:miter;stroke:rgb(0%,0%,0%);stroke-opacity:1;stroke-miterlimit:10;" d="M 266.332031 203.515625 L 267.789062 184.445312 "/>
<path style="fill:none;stroke-width:1.2;stroke-linecap:butt;stroke-linejoin:miter;stroke:rgb(0%,0%,100%);stroke-opacity:1;stroke-miterlimit:10;" d="M 267.789062 184.445312 L 269.25 165.378906 "/>
<path style="fill:none;stroke-width:1.2;stroke-linecap:butt;stroke-linejoin:miter;stroke:rgb(0%,0%,0%);stroke-opacity:1;stroke-miterlimit:10;" d="M 257.648438 199.015625 L 258.816406 183.757812 "/>
<path style="fill:none;stroke-width:1.2;stroke-linecap:butt;stroke-linejoin:miter;stroke:rgb(0%,0%,100%);stroke-opacity:1;stroke-miterlimit:10;" d="M 258.816406 183.757812 L 259.984375 168.503906 "/>
<path style="fill:none;stroke-width:1.2;stroke-linecap:butt;stroke-linejoin:miter;stroke:rgb(0%,0%,100%);stroke-opacity:1;stroke-miterlimit:10;" d="M 269.25 165.378906 L 253.464844 154.578125 "/>
<path style="fill:none;stroke-width:1.2;stroke-linecap:butt;stroke-linejoin:miter;stroke:rgb(0%,0%,0%);stroke-opacity:1;stroke-miterlimit:10;" d="M 253.464844 154.578125 L 237.679688 143.78125 "/>
<path style=" stroke:none;fill-rule:nonzero;fill:rgb(100%,100%,100%);fill-opacity:1;" d="M 263.25 155.878906 L 275.25 155.878906 L 275.25 174.878906 L 263.25 174.878906 Z M 263.25 155.878906 "/>
<g style="fill:rgb(0%,0%,100%);fill-opacity:1;">
  <use xlink:href="#glyph0-1" x="263.25" y="170.730469"/>
</g>
<path style="fill:none;stroke-width:1.2;stroke-linecap:butt;stroke-linejoin:miter;stroke:rgb(0%,0%,0%);stroke-opacity:1;stroke-miterlimit:10;" d="M 237.679688 143.78125 L 203.191406 160.320312 "/>
<path style="fill:none;stroke-width:1.2;stroke-linecap:butt;stroke-linejoin:miter;stroke:rgb(0%,0%,0%);stroke-opacity:1;stroke-miterlimit:10;" d="M 238.125 153.546875 L 210.535156 166.78125 "/>
</g>
</svg>

<svg xmlns="http://www.w3.org/2000/svg" xmlns:xlink="http://www.w3.org/1999/xlink" width="300pt" height="300pt" viewBox="0 0 300 300"><defs><symbol overflow="visible"><path d="M.797 2.828v-14.11h8V2.83zm.906-.89h6.203v-12.33H1.703zm0 0"/></symbol><symbol overflow="visible" id="a"><path d="M1.578-11.672h2.125l5.172 9.766v-9.766h1.53V0H8.282L3.11-9.766V0H1.577zm0 0"/></symbol><symbol overflow="visible" id="b"><path d="M6.313-10.594c-1.15 0-2.06.43-2.735 1.28-.68.857-1.015 2.017-1.015 3.486 0 1.47.335 2.633 1.015 3.484.676.856 1.586 1.28 2.735 1.28 1.144.002 2.05-.424 2.718-1.28.665-.85 1-2.015 1-3.484 0-1.47-.335-2.63-1-3.484-.667-.852-1.573-1.282-2.717-1.282zm0-1.28c1.632 0 2.94.546 3.92 1.64.978 1.093 1.47 2.562 1.47 4.406 0 1.844-.492 3.32-1.47 4.422-.98 1.093-2.288 1.64-3.92 1.64-1.65 0-2.96-.546-3.938-1.64-.98-1.102-1.47-2.578-1.47-4.422 0-1.844.49-3.313 1.47-4.406.977-1.094 2.29-1.64 3.938-1.64zm0 0"/></symbol><symbol overflow="visible" id="c"><path d="M1.578-11.672h1.578v4.78H8.89v-4.78h1.58V0H8.89v-5.563H3.157V0H1.578zm0 0"/></symbol></defs><g><path fill="#fff" d="M0 0h300v300H0z"/><path d="M62.32 264.62l-31.57-21.597M64.242 255.035l-25.254-17.28M96.81 248.082l-34.49 16.54M30.75 243.023l2.918-38.136M33.668 204.887l34.488-16.543M41.012 211.348l27.59-13.235M68.156 188.344l31.57 21.597" stroke-width="1.2" stroke="#000" stroke-miterlimit="10" fill="none"/><path d="M71.078 150.207l-1.46 19.07" stroke-width="1.2" stroke="#00f" stroke-miterlimit="10" fill="none"/><path d="M69.617 169.277l-1.46 19.067M99.727 209.94l-2.918 38.142M90.46 213.07l-2.335 30.508M99.727 209.94l34.488-16.538M134.215 193.402l1.46-19.07" stroke-width="1.2" stroke="#000" stroke-miterlimit="10" fill="none"/><path d="M135.676 174.332l1.46-19.07" stroke-width="1.2" stroke="#00f" stroke-miterlimit="10" fill="none"/><path d="M125.535 188.902l1.168-15.257" stroke-width="1.2" stroke="#000" stroke-miterlimit="10" fill="none"/><path d="M126.703 173.645l1.168-15.254" stroke-width="1.2" stroke="#00f" stroke-miterlimit="10" fill="none"/><path d="M134.215 193.402L150 204.2" stroke-width="1.2" stroke="#000" stroke-miterlimit="10" fill="none"/><path d="M150 204.2l15.785 10.8M137.137 155.262l-15.785-10.797" stroke-width="1.2" stroke="#00f" stroke-miterlimit="10" fill="none"/><path d="M121.352 144.465l-15.786-10.8" stroke-width="1.2" stroke="#000" stroke-miterlimit="10" fill="none"/><path d="M131.137 145.762h12v19h-12zm0 0" fill="#fff"/><use xlink:href="#a" x="131.137" y="160.613" fill="#00f"/><path d="M105.566 133.664l-17.246 8.274" stroke-width="1.2" stroke="#000" stroke-miterlimit="10" fill="none"/><path d="M88.32 141.938l-17.242 8.27" stroke-width="1.2" stroke="#00f" stroke-miterlimit="10" fill="none"/><path d="M106.008 143.434l-13.793 6.617" stroke-width="1.2" stroke="#000" stroke-miterlimit="10" fill="none"/><path d="M92.215 150.05l-13.797 6.618" stroke-width="1.2" stroke="#00f" stroke-miterlimit="10" fill="none"/><path d="M105.566 133.664l2.918-38.137" stroke-width="1.2" stroke="#000" stroke-miterlimit="10" fill="none"/><path d="M65.078 140.707h12v19h-12zm0 0" fill="#fff"/><use xlink:href="#a" x="65.078" y="155.559" fill="#00f"/><path d="M108.484 95.527l-29.136-24.78M111.402 86.19L88.09 66.37M141.055 75.473l-32.57 20.054M79.348 70.746l7.28-17.683" stroke-width="1.2" stroke="#000" stroke-miterlimit="10" fill="none"/><path d="M86.63 53.063l7.28-17.684M93.91 35.38l19.067 1.46" stroke-width="1.2" stroke="#f00" stroke-miterlimit="10" fill="none"/><path d="M112.977 36.84l19.07 1.457" stroke-width="1.2" stroke="#000" stroke-miterlimit="10" fill="none"/><path d="M87.91 25.88h13v19h-13zm0 0" fill="#fff"/><use xlink:href="#b" x="87.91" y="40.73" fill="#f00"/><path d="M132.047 38.297l9.008 37.176M124.203 44.137l7.207 29.738" stroke-width="1.2" stroke="#000" stroke-miterlimit="10" fill="none"/><path d="M165.785 215l17.242-8.27" stroke-width="1.2" stroke="#00f" stroke-miterlimit="10" fill="none"/><path d="M183.027 206.73l17.246-8.273" stroke-width="1.2" stroke="#000" stroke-miterlimit="10" fill="none"/><path d="M153.785 205.5h24v19h-24zm0 0" fill="#fff"/><g fill="#00f"><use xlink:href="#a" x="153.785" y="220.352"/><use xlink:href="#c" x="165.754" y="220.352"/></g><path d="M200.273 198.457l31.57 21.598M208.512 193.19l25.254 17.28M203.19 160.32l-2.917 38.137M231.844 220.055l34.488-16.54M266.332 203.516l1.457-19.07" stroke-width="1.2" stroke="#000" stroke-miterlimit="10" fill="none"/><path d="M267.79 184.445l1.46-19.066" stroke-width="1.2" stroke="#00f" stroke-miterlimit="10" fill="none"/><path d="M257.648 199.016l1.168-15.258" stroke-width="1.2" stroke="#000" stroke-miterlimit="10" fill="none"/><path d="M258.816 183.758l1.168-15.254M269.25 165.38l-15.785-10.802" stroke-width="1.2" stroke="#00f" stroke-miterlimit="10" fill="none"/><path d="M253.465 154.578L237.68 143.78" stroke-width="1.2" stroke="#000" stroke-miterlimit="10" fill="none"/><path d="M263.25 155.88h12v19h-12zm0 0" fill="#fff"/><use xlink:href="#a" x="263.25" y="170.73" fill="#00f"/><path d="M237.68 143.78l-34.49 16.54M238.125 153.547l-27.59 13.234" stroke-width="1.2" stroke="#000" stroke-miterlimit="10" fill="none"/></g></svg>
